X: 1
T: Kan f\"orundra
T: Orepolska
R: polska
C: Timas Hans Hansson
Z: John Chambers <jc@trillian.mit.edu>
M: 3/4
L: 1/8
K: DDorian
|: A- | A>^c d>e f>e | g>f df e2 | c>B G>A B>d | d^c A3 :|
|: F- | F>A c>B G>B | dc AF D2 | fg/f/ ed ^cd |1,3 ed/^c/ df a :|2,4 ed/^c/ d3 :|
